theme/dist/icons/money.svg

<svg clip-rule="evenodd" fill-rule="evenodd" stroke-linejoin="round" stroke-miterlimit="1.41421" viewBox="0 0 50 50" xmlns="http://www.w3.org/2000/svg"><path d="m59.989 21c-.099-1.711-2.134-3.048-6.204-4.068.137-.3.214-.612.215-.936v-6.996h-.017c-.358-5.828-24.24-6-26.983-6s-26.625.172-26.983 6h-.017v6.999c.005 1.9 2.457 3.387 6.105 4.494-.05.166-.08.335-.09.507h-.015v6.987c-3.93 1.012-5.893 2.33-5.99 4.013h-.01v6.999c.003 1.323 1.196 2.445 3.148 3.38-.074.203-.12.41-.133.622h-.015v6.999c.008 3.326 7.497 5.391 15.818 6.355.061.012.117.037.182.037.019 0 .035-.01.054-.011 1.604.181 3.234.322 4.847.423.034.004.064.02.099.02.019 0 .034-.01.052-.011 2.048.124 4.063.187 5.948.187s3.9-.063 5.948-.188c.018.001.034.011.052.011.035 0 .065-.017.099-.02 1.613-.101 3.243-.241 4.847-.423.019 0 .035.01.054.01.065 0 .121-.025.182-.037 8.321-.964 15.809-3.03 15.818-6.357v-6.996h-.016c-.07-1.226-1.115-2.249-3.179-3.104.126-.289.195-.589.195-.9v-6.536c3.59-1.104 5.995-2.581 6-4.464v-6.996zm-8.097 18.321-.341.299c-.525.463-1.4.93-2.551 1.38v-4.768c1.189-.414 2.201-.873 3-1.376v4.138c0 .103-.038.213-.108.327zm-22.366 4.647c-.146.004-.293.006-.44.009-.357.007-.723.009-1.085.012v-4.995c.275-.003.55-.007.825-.012.053-.001.106-.002.159-.003 1.007-.019 2.014-.05 3.016-.096v4.993c-.214.011-.429.021-.646.03-.602.027-1.21.047-1.829.062zm-4.367.014c-.458-.008-.914-.019-1.367-.033-.056-.002-.112-.004-.168-.006-.545-.018-1.086-.041-1.623-.067v-4.992c1.002.047 2.009.078 3.016.096.053.001.106.002.158.003.275.005.55.009.825.012v4.998c-.194-.002-.388-.002-.581-.005-.088-.002-.173-.005-.26-.006zm-18.062-2.28c-.033-.01-.064-.019-.097-.028v-4.831c.934.252 1.938.482 3 .691v4.881c-.918-.195-1.765-.4-2.536-.61-.122-.035-.248-.068-.367-.103zm21.078 8.281c.275.005.55.009.825.012v4.999c-1.382-.013-2.716-.053-4-.116v-4.993c1.002.047 2.009.078 3.016.096.053 0 .106.001.159.002zm3.809-.003c1.007-.019 2.014-.05 3.016-.096v4.993c-1.284.063-2.618.103-4 .116v-4.999c.275-.003.55-.007.825-.012.053 0 .106-.001.159-.002zm8.016-.452v4.966c-.961.101-1.961.19-3 .263v-4.987c1.014-.066 2.016-.147 3-.242zm2-.216c1.031-.124 2.032-.265 3-.422v4.91c-.942.166-1.943.319-3 .458zm5-.779c1.062-.209 2.066-.439 3-.691v4.831c-.891.257-1.894.506-3 .741zm-34 0v4.881c-1.106-.235-2.109-.484-3-.741v-4.831c.934.252 1.938.483 3 .691zm2 .358c.968.157 1.969.298 3 .422v4.946c-1.057-.139-2.058-.292-3-.458zm5 .637c.984.095 1.986.176 3 .243v4.987c-1.039-.073-2.039-.162-3-.263zm-2.481-5.98c-.102-.01-.203-.021-.304-.031-.072-.007-.143-.016-.215-.023v-4.965c.984.095 1.986.176 3 .243v4.983c-.84-.06-1.67-.128-2.481-.207zm-2.519-5.236v4.946c-1.057-.139-2.058-.292-3-.458v-4.91c.968.157 1.969.299 3 .422zm19.666 5.396c-.22.017-.442.034-.666.05v-4.987c1.014-.067 2.016-.147 3-.243v4.966c-.618.065-1.25.126-1.899.179-.145.013-.29.024-.435.035zm4.334-.45v-4.946c1.031-.124 2.032-.265 3-.422v4.91c-.942.166-1.943.32-3 .458zm5-5.725c1.062-.209 2.066-.439 3-.691v4.831c-.891.257-1.894.506-3 .741zm-13.675-4.568c-.752-.019-1.487-.048-2.209-.083-.039-.002-.078-.004-.116-.005v-4.993c1.002.047 2.009.078 3.016.096.053.001.106.002.158.003.275.005.55.009.825.012v4.993c-.487-.005-.978-.007-1.453-.018-.073-.002-.148-.003-.221-.005zm-23.325-14.291v-4.831c.934.252 1.938.482 3 .691v4.881c-.123-.026-.25-.052-.37-.078-.532-.117-1.051-.239-1.547-.368-.378-.097-.737-.196-1.083-.295zm18.175-2.691c.275.005.55.009.825.012v4.993c-1.346-.013-2.684-.048-4-.114v-4.989c1.002.047 2.009.078 3.016.096.053 0 .106.001.159.002zm3.809-.003c1.007-.019 2.014-.05 3.016-.096v4.989c-.17.008-.333.02-.504.028-.014.001-.028.001-.043.002-.671.03-1.355.052-2.048.068-.108.003-.216.004-.324.007-.356.007-.72.008-1.081.012v-4.995c.275-.003.55-.007.825-.012.053-.001.106-.002.159-.003zm22.787.502-.028-.006-.364.283c-.528.411-1.339.827-2.379 1.229v-4.757c1.189-.414 2.201-.873 3-1.376v4.138c0 .152-.08.316-.229.489zm-12.771 3.77v-4.94c1.031-.124 2.032-.265 3-.422v4.902c-.948.168-1.946.322-3 .46zm5-.845v-4.873c1.062-.209 2.066-.439 3-.691v4.82c-.896.261-1.905.51-3 .744zm-7-3.879v4.96c-.966.102-1.966.191-3 .265v-4.982c1.014-.067 2.016-.148 3-.243zm-20 4.962v-4.962c.984.095 1.986.176 3 .243v4.978c-1.018-.073-2.022-.156-3-.259zm-2-5.178v4.941c-.198-.026-.404-.047-.6-.074-.128-.018-.25-.037-.376-.055-.578-.083-1.143-.172-1.697-.265-.111-.019-.218-.039-.327-.058v-4.91c.968.156 1.969.298 3 .421zm10.752 17.427c-.135-.01-.271-.02-.405-.03-.64-.05-1.265-.105-1.875-.166-.131-.013-.262-.027-.392-.04-.027-.003-.053-.007-.08-.009v-4.966c.984.095 1.986.176 3 .243v4.984c-.081-.006-.167-.01-.248-.016zm-6.607-.747c-.396-.063-.768-.131-1.145-.197v-4.904c.968.157 1.969.298 3 .422v4.946c-.612-.081-1.211-.165-1.786-.255-.023-.005-.046-.009-.069-.012zm-3.145-5.459v4.873c-1.105-.237-2.107-.489-3-.751v-4.813c.934.252 1.938.483 3 .691zm-5-1.302v4.751c-1.572-.607-2.586-1.227-2.916-1.779l-.067-.112c-.006-.031-.016-.064-.017-.095v-4.141c.799.503 1.811.962 3 1.376zm23.984 2.749c1.007-.019 2.014-.05 3.016-.096v4.988c-1.314.065-2.65.101-4 .115v-4.992c.275-.003.55-.007.825-.012zm12.923 3.837c-.439.076-.882.151-1.337.22-.261.04-.528.078-.796.116-.253.036-.516.067-.773.1v-4.941c1.031-.124 2.032-.265 3-.422v4.91c-.032.006-.063.012-.094.017zm-6.771.854c-.373.031-.758.051-1.136.078v-4.978c1.014-.067 2.016-.147 3-.243v4.961c-.581.061-1.161.122-1.758.172-.036.003-.07.007-.106.01zm11.428-1.875c-.498.139-1.025.269-1.563.396-.249.058-.503.116-.763.172-.077.017-.159.032-.237.049v-4.879c1.062-.209 2.066-.439 3-.691v4.831c-.144.04-.289.081-.437.122zm5.425-9.731c-.092.679-1.631 1.582-4.378 2.431-3.538 1.093-9.074 2.094-16.09 2.404-.359.015-.717.03-1.083.042-.299.01-.599.019-.904.027-.828.018-1.668.031-2.534.031s-1.706-.013-2.534-.032c-.304-.007-.604-.017-.904-.027-.367-.011-.725-.027-1.083-.042-7.016-.31-12.553-1.311-16.09-2.404-2.725-.842-4.261-1.738-4.375-2.414.005-.019.005-.035.017-.059.068.017.144.031.213.048.391.093.792.183 1.2.269 1.987.428 4.189.779 6.535 1.047.008 0 .014.004.021.004.002 0 .004-.001.005-.001 1.598.182 3.256.325 4.958.426.013 0 .024.007.037.007.007 0 .012-.004.019-.004 1.225.072 2.466.125 3.722.153.769.019 1.524.029 2.259.029.525 0 1.063-.006 1.606-.016 7.266-.112 14-.976 18.686-2.315.216-.061.427-.124.635-.187.127-.039.257-.077.38-.116.362-.116.709-.235 1.044-.359.058-.022.113-.044.171-.066.283-.107.555-.218.815-.331.075-.033.152-.065.225-.098.277-.125.545-.253.793-.386.112-.059.209-.12.314-.18.12-.069.24-.139.351-.21.063-.04.138-.078.198-.118 4.477.971 5.657 2.033 5.771 2.447zm-30.989-16.065c16.489 0 24.829 2.596 24.985 4.086-.121.676-1.656 1.569-4.374 2.409-3.538 1.093-9.074 2.094-16.09 2.404-.359.015-.717.03-1.083.042-.299.01-.599.019-.904.027-.828.019-1.668.032-2.534.032s-1.706-.013-2.534-.032c-.304-.007-.604-.017-.904-.027-.367-.011-.725-.027-1.083-.042-7.016-.31-12.553-1.311-16.09-2.404-2.719-.84-4.253-1.733-4.374-2.409.156-1.49 8.496-4.086 24.985-4.086zm-25 10.996v-4.141c.799.503 1.811.962 3 1.376v4.788c-1.945-.729-2.998-1.46-3-2.023zm4.844 13.839c.015.016.038.03.053.046 1.369 1.382 4.204 2.468 7.733 3.278.081.019.167.037.249.056.259.058.522.115.788.17 3.241.69 7.11 1.189 11.325 1.436.003 0 .005.001.007.001s.003-.001.004-.001c1.354.079 2.739.134 4.153.158.626.013 1.242.021 1.844.021.69 0 1.398-.008 2.118-.025 1.308-.027 2.597-.081 3.868-.155.005 0 .009.003.014.003.009 0 .016-.005.025-.005 4.226-.249 8.191-.753 11.544-1.478-.726.38-1.72.773-2.958 1.156-3.735 1.154-9.7 2.205-17.281 2.449-.225.007-.447.015-.675.021-.245.006-.494.01-.743.015-.629.01-1.262.019-1.912.019-.866 0-1.706-.013-2.534-.032-.304-.007-.604-.017-.904-.027-.367-.011-.725-.027-1.083-.042-7.016-.31-12.553-1.311-16.09-2.404-2.75-.85-4.289-1.754-4.378-2.433.111-.376 1.122-1.317 4.833-2.227zm-4.844 9.161v-4.141c.799.503 1.811.962 3 1.376v4.769l-.571-.222-.012.012c-1.57-.651-2.415-1.29-2.417-1.794zm3 11v-4.141c.799.503 1.811.962 3 1.376v4.788c-1.945-.729-2.998-1.46-3-2.023zm47 2.023v-4.787c1.189-.414 2.201-.873 3-1.376v4.138c-.001.563-1.055 1.295-3 2.025zm2.987-8.942c-.109.677-1.645 1.575-4.376 2.419-3.538 1.093-9.074 2.094-16.09 2.404-.359.015-.717.03-1.083.042-.299.01-.599.019-.904.027-.828.018-1.668.031-2.534.031s-1.707-.013-2.536-.032c-.301-.007-.598-.017-.895-.027-.369-.012-.729-.027-1.09-.042-7.016-.31-12.552-1.311-16.09-2.404-2.645-.817-4.173-1.685-4.365-2.355.298.104.607.205.924.304.032.01.064.02.096.029.27.083.546.163.829.241.107.03.215.06.324.089.16.043.324.084.488.126 3.642.933 8.291 1.594 13.31 1.891.002 0 .003.001.005.001.001 0 .002-.001.003-.001 1.55.092 3.133.149 4.733.168.426.008.849.012 1.264.012.551 0 1.115-.007 1.686-.017 1.459-.024 2.899-.078 4.307-.162.003 0 .005.002.008.002.005 0 .008-.003.013-.003 1.715-.103 3.375-.25 4.97-.433.006 0 .011.003.017.003.022 0 .04-.011.062-.013 1.776-.205 3.46-.457 5.023-.75.322-.059.639-.12.953-.183.07-.014.14-.028.21-.043 2.953-.606 5.509-1.391 7.263-2.364.096-.052.186-.106.277-.159.111-.066.217-.133.32-.201.096-.062.207-.122.295-.185 1.974.704 2.518 1.334 2.583 1.585zm.013-13.058v-4.787c1.189-.414 2.201-.873 3-1.376v4.138c-.001.563-1.055 1.295-3 2.025z" fill-rule="nonzero" transform="scale(.833333)"/></svg>

<?xml version="1.0" encoding="iso-8859-1"?>
<!-- Generator: Adobe Illustrator 18.0.0, SVG Export Plug-In . SVG Version: 6.00 Build 0)  -->
<!DOCTYPE svg PUBLIC "-//W3C//DTD SVG 1.1//EN" "http://www.w3.org/Graphics/SVG/1.1/DTD/svg11.dtd">
<svg version="1.1" id="Capa_1" xmlns="http://www.w3.org/2000/svg" xmlns:xlink="http://www.w3.org/1999/xlink" x="0px" y="0px"
	 viewBox="0 0 60 60" style="enable-background:new 0 0 60 60;" xml:space="preserve">
<path d="M59.989,21c-0.099-1.711-2.134-3.048-6.204-4.068c0.137-0.3,0.214-0.612,0.215-0.936V9h-0.017C53.625,3.172,29.743,3,27,3
	S0.375,3.172,0.017,9H0v0.13v0v0l0,6.869c0.005,1.9,2.457,3.387,6.105,4.494c-0.05,0.166-0.08,0.335-0.09,0.507H6v0.13v0v0l0,6.857
	C2.07,28.999,0.107,30.317,0.01,32H0v0.13v0v0l0,6.869c0.003,1.323,1.196,2.445,3.148,3.38c-0.074,0.203-0.12,0.41-0.133,0.622H3
	v0.13v0v0l0,6.869c0.008,3.326,7.497,5.391,15.818,6.355c0.061,0.012,0.117,0.037,0.182,0.037c0.019,0,0.035-0.01,0.054-0.011
	c1.604,0.181,3.234,0.322,4.847,0.423c0.034,0.004,0.064,0.02,0.099,0.02c0.019,0,0.034-0.01,0.052-0.011
	C26.1,56.937,28.115,57,30,57c1.885,0,3.9-0.063,5.948-0.188c0.018,0.001,0.034,0.011,0.052,0.011c0.035,0,0.065-0.017,0.099-0.02
	c1.613-0.101,3.243-0.241,4.847-0.423C40.965,56.38,40.981,56.39,41,56.39c0.065,0,0.121-0.025,0.182-0.037
	c8.321-0.964,15.809-3.03,15.818-6.357V43h-0.016c-0.07-1.226-1.115-2.249-3.179-3.104c0.126-0.289,0.195-0.589,0.195-0.9V32.46
	c3.59-1.104,5.995-2.581,6-4.464V21H59.989z M51.892,39.321l-0.341,0.299C51.026,40.083,50.151,40.55,49,41v-4.768
	c1.189-0.414,2.201-0.873,3-1.376v4.138C52,39.097,51.962,39.207,51.892,39.321z M29.526,43.968
	c-0.146,0.004-0.293,0.006-0.44,0.009c-0.357,0.007-0.723,0.009-1.085,0.012v-4.995c0.275-0.003,0.55-0.007,0.825-0.012
	c0.053-0.001,0.106-0.002,0.159-0.003c1.007-0.019,2.014-0.05,3.016-0.096v4.993c-0.214,0.011-0.429,0.021-0.646,0.03
	C30.753,43.933,30.145,43.953,29.526,43.968z M25.159,43.982c-0.458-0.008-0.914-0.019-1.367-0.033
	c-0.056-0.002-0.112-0.004-0.168-0.006c-0.545-0.018-1.086-0.041-1.623-0.067v-4.992c1.002,0.047,2.009,0.078,3.016,0.096
	c0.053,0.001,0.106,0.002,0.158,0.003c0.275,0.005,0.55,0.009,0.825,0.012v4.998c-0.194-0.002-0.388-0.002-0.581-0.005
	C25.331,43.986,25.246,43.983,25.159,43.982z M7.097,41.702C7.064,41.692,7.033,41.683,7,41.674v-4.831
	c0.934,0.252,1.938,0.482,3,0.691v4.881c-0.918-0.195-1.765-0.4-2.536-0.61C7.342,41.77,7.216,41.737,7.097,41.702z M28.175,49.983
	c0.275,0.005,0.55,0.009,0.825,0.012v4.999c-1.382-0.013-2.716-0.053-4-0.116v-4.993c1.002,0.047,2.009,0.078,3.016,0.096
	C28.069,49.981,28.122,49.982,28.175,49.983z M31.984,49.98c1.007-0.019,2.014-0.05,3.016-0.096v4.993
	c-1.284,0.063-2.618,0.103-4,0.116v-4.999c0.275-0.003,0.55-0.007,0.825-0.012C31.878,49.982,31.931,49.981,31.984,49.98z
	 M40,49.528v4.966c-0.961,0.101-1.961,0.19-3,0.263v-4.987C38.014,49.704,39.016,49.623,40,49.528z M42,49.312
	c1.031-0.124,2.032-0.265,3-0.422v4.91c-0.942,0.166-1.943,0.319-3,0.458V49.312z M47,48.533c1.062-0.209,2.066-0.439,3-0.691v4.831
	c-0.891,0.257-1.894,0.506-3,0.741V48.533z M13,48.533v4.881c-1.106-0.235-2.109-0.484-3-0.741v-4.831
	C10.934,48.094,11.938,48.325,13,48.533z M15,48.891c0.968,0.157,1.969,0.298,3,0.422v4.946c-1.057-0.139-2.058-0.292-3-0.458
	V48.891z M20,49.528c0.984,0.095,1.986,0.176,3,0.243v4.987c-1.039-0.073-2.039-0.162-3-0.263V49.528z M17.519,43.548
	c-0.102-0.01-0.203-0.021-0.304-0.031c-0.072-0.007-0.143-0.016-0.215-0.023v-4.965c0.984,0.095,1.986,0.176,3,0.243v4.983
	C19.16,43.695,18.33,43.627,17.519,43.548z M15,38.312v4.946c-1.057-0.139-2.058-0.292-3-0.458v-4.91
	C12.968,38.047,13.969,38.189,15,38.312z M34.666,43.708c-0.22,0.017-0.442,0.034-0.666,0.05v-4.987
	c1.014-0.067,2.016-0.147,3-0.243v4.966c-0.618,0.065-1.25,0.126-1.899,0.179C34.956,43.686,34.811,43.697,34.666,43.708z
	 M39,43.258v-4.946c1.031-0.124,2.032-0.265,3-0.422v4.91C41.058,42.966,40.057,43.12,39,43.258z M44,37.533
	c1.062-0.209,2.066-0.439,3-0.691v4.831c-0.891,0.257-1.894,0.506-3,0.741V37.533z M30.325,32.965
	c-0.752-0.019-1.487-0.048-2.209-0.083c-0.039-0.002-0.078-0.004-0.116-0.005v-4.993c1.002,0.047,2.009,0.078,3.016,0.096
	c0.053,0.001,0.106,0.002,0.158,0.003c0.275,0.005,0.55,0.009,0.825,0.012v4.993c-0.487-0.005-0.978-0.007-1.453-0.018
	C30.473,32.968,30.398,32.967,30.325,32.965z M7,18.674v-4.831c0.934,0.252,1.938,0.482,3,0.691v4.881
	c-0.123-0.026-0.25-0.052-0.37-0.078c-0.532-0.117-1.051-0.239-1.547-0.368C7.705,18.872,7.346,18.773,7,18.674z M25.175,15.983
	c0.275,0.005,0.55,0.009,0.825,0.012v4.993c-1.346-0.013-2.684-0.048-4-0.114v-4.989c1.002,0.047,2.009,0.078,3.016,0.096
	C25.069,15.981,25.122,15.982,25.175,15.983z M28.984,15.98c1.007-0.019,2.014-0.05,3.016-0.096v4.989
	c-0.17,0.008-0.333,0.02-0.504,0.028c-0.014,0.001-0.028,0.001-0.043,0.002c-0.671,0.03-1.355,0.052-2.048,0.068
	c-0.108,0.003-0.216,0.004-0.324,0.007c-0.356,0.007-0.72,0.008-1.081,0.012v-4.995c0.275-0.003,0.55-0.007,0.825-0.012
	C28.878,15.982,28.931,15.981,28.984,15.98z M51.771,16.482l-0.028-0.006l-0.364,0.283C50.851,17.17,50.04,17.586,49,17.988v-4.757
	c1.189-0.414,2.201-0.873,3-1.376v4.138C52,16.145,51.92,16.309,51.771,16.482z M39,20.252v-4.94c1.031-0.124,2.032-0.265,3-0.422
	v4.902C41.052,19.96,40.054,20.114,39,20.252z M44,19.407v-4.873c1.062-0.209,2.066-0.439,3-0.691v4.82
	C46.104,18.924,45.095,19.173,44,19.407z M37,15.528v4.96c-0.966,0.102-1.966,0.191-3,0.265v-4.982
	C35.014,15.704,36.016,15.623,37,15.528z M17,20.49v-4.962c0.984,0.095,1.986,0.176,3,0.243v4.978
	C18.982,20.676,17.978,20.593,17,20.49z M15,15.312v4.941c-0.198-0.026-0.404-0.047-0.6-0.074c-0.128-0.018-0.25-0.037-0.376-0.055
	c-0.578-0.083-1.143-0.172-1.697-0.265C12.216,19.84,12.109,19.82,12,19.801v-4.91C12.968,15.047,13.969,15.189,15,15.312z
	 M25.752,32.739c-0.135-0.01-0.271-0.02-0.405-0.03c-0.64-0.05-1.265-0.105-1.875-0.166c-0.131-0.013-0.262-0.027-0.392-0.04
	C23.053,32.5,23.027,32.496,23,32.494v-4.966c0.984,0.095,1.986,0.176,3,0.243v4.984C25.919,32.749,25.833,32.745,25.752,32.739z
	 M19.145,31.992c-0.396-0.063-0.768-0.131-1.145-0.197v-4.904c0.968,0.157,1.969,0.298,3,0.422v4.946
	c-0.612-0.081-1.211-0.165-1.786-0.255C19.191,31.999,19.168,31.995,19.145,31.992z M16,26.533v4.873
	c-1.105-0.237-2.107-0.489-3-0.751v-4.813C13.934,26.094,14.938,26.325,16,26.533z M11,25.231v4.751
	c-1.572-0.607-2.586-1.227-2.916-1.779l-0.067-0.112C8.011,28.06,8.001,28.027,8,27.996l0-4.141
	C8.799,24.358,9.811,24.817,11,25.231z M34.984,27.98c1.007-0.019,2.014-0.05,3.016-0.096v4.988c-1.314,0.065-2.65,0.101-4,0.115
	v-4.992c0.275-0.003,0.55-0.007,0.825-0.012C34.878,27.982,34.931,27.981,34.984,27.98z M47.907,31.817
	c-0.439,0.076-0.882,0.151-1.337,0.22c-0.261,0.04-0.528,0.078-0.796,0.116c-0.253,0.036-0.516,0.067-0.773,0.1v-4.941
	c1.031-0.124,2.032-0.265,3-0.422v4.91C47.969,31.806,47.938,31.812,47.907,31.817z M41.136,32.671
	c-0.373,0.031-0.758,0.051-1.136,0.078v-4.978c1.014-0.067,2.016-0.147,3-0.243v4.961c-0.581,0.061-1.161,0.122-1.758,0.172
	C41.206,32.664,41.172,32.668,41.136,32.671z M52.564,30.796c-0.498,0.139-1.025,0.269-1.563,0.396
	c-0.249,0.058-0.503,0.116-0.763,0.172c-0.077,0.017-0.159,0.032-0.237,0.049v-4.879c1.062-0.209,2.066-0.439,3-0.691v4.831
	C52.857,30.714,52.712,30.755,52.564,30.796z M57.989,21.065c-0.092,0.679-1.631,1.582-4.378,2.431l0,0
	c-3.538,1.093-9.074,2.094-16.09,2.404c-0.359,0.015-0.717,0.03-1.083,0.042c-0.299,0.01-0.599,0.019-0.904,0.027
	C34.706,25.987,33.866,26,33,26s-1.706-0.013-2.534-0.032c-0.304-0.007-0.604-0.017-0.904-0.027
	c-0.367-0.011-0.725-0.027-1.083-0.042c-7.016-0.31-12.553-1.311-16.09-2.404l0,0c-2.725-0.842-4.261-1.738-4.375-2.414
	c0.005-0.019,0.005-0.035,0.017-0.059c0.068,0.017,0.144,0.031,0.213,0.048c0.391,0.093,0.792,0.183,1.2,0.269
	c1.987,0.428,4.189,0.779,6.535,1.047c0.008,0,0.014,0.004,0.021,0.004c0.002,0,0.004-0.001,0.005-0.001
	c1.598,0.182,3.256,0.325,4.958,0.426c0.013,0,0.024,0.007,0.037,0.007c0.007,0,0.012-0.004,0.019-0.004
	c1.225,0.072,2.466,0.125,3.722,0.153C25.51,22.99,26.265,23,27,23c0.525,0,1.063-0.006,1.606-0.016
	c7.266-0.112,14-0.976,18.686-2.315c0.216-0.061,0.427-0.124,0.635-0.187c0.127-0.039,0.257-0.077,0.38-0.116
	c0.362-0.116,0.709-0.235,1.044-0.359c0.058-0.022,0.113-0.044,0.171-0.066c0.283-0.107,0.555-0.218,0.815-0.331
	c0.075-0.033,0.152-0.065,0.225-0.098c0.277-0.125,0.545-0.253,0.793-0.386c0.112-0.059,0.209-0.12,0.314-0.18
	c0.12-0.069,0.24-0.139,0.351-0.21c0.063-0.04,0.138-0.078,0.198-0.118C56.695,19.589,57.875,20.651,57.989,21.065z M27,5
	c16.489,0,24.829,2.596,24.985,4.086c-0.121,0.676-1.656,1.569-4.374,2.409l0,0c-3.538,1.093-9.074,2.094-16.09,2.404
	c-0.359,0.015-0.717,0.03-1.083,0.042c-0.299,0.01-0.599,0.019-0.904,0.027C28.706,13.987,27.866,14,27,14s-1.706-0.013-2.534-0.032
	c-0.304-0.007-0.604-0.017-0.904-0.027c-0.367-0.011-0.725-0.027-1.083-0.042c-7.016-0.31-12.553-1.311-16.09-2.404l0,0
	c-2.719-0.84-4.253-1.733-4.374-2.409C2.171,7.596,10.511,5,27,5z M2,15.996l0-4.141c0.799,0.503,1.811,0.962,3,1.376v4.788
	C3.055,17.29,2.002,16.559,2,15.996z M6.844,29.835c0.015,0.016,0.038,0.03,0.053,0.046c1.369,1.382,4.204,2.468,7.733,3.278
	c0.081,0.019,0.167,0.037,0.249,0.056c0.259,0.058,0.522,0.115,0.788,0.17c3.241,0.69,7.11,1.189,11.325,1.436
	c0.003,0,0.005,0.001,0.007,0.001c0.002,0,0.003-0.001,0.004-0.001c1.354,0.079,2.739,0.134,4.153,0.158
	C31.782,34.992,32.398,35,33,35c0.69,0,1.398-0.008,2.118-0.025c1.308-0.027,2.597-0.081,3.868-0.155
	c0.005,0,0.009,0.003,0.014,0.003c0.009,0,0.016-0.005,0.025-0.005c4.226-0.249,8.191-0.753,11.544-1.478
	c-0.726,0.38-1.72,0.773-2.958,1.156l0,0c-3.735,1.154-9.7,2.205-17.281,2.449c-0.225,0.007-0.447,0.015-0.675,0.021
	c-0.245,0.006-0.494,0.01-0.743,0.015C28.283,36.991,27.65,37,27,37c-0.866,0-1.706-0.013-2.534-0.032
	c-0.304-0.007-0.604-0.017-0.904-0.027c-0.367-0.011-0.725-0.027-1.083-0.042c-7.016-0.31-12.553-1.311-16.09-2.404l0,0
	c-2.75-0.85-4.289-1.754-4.378-2.433C2.122,31.686,3.133,30.745,6.844,29.835z M2,38.996l0-4.141c0.799,0.503,1.811,0.962,3,1.376
	v4.769l-0.571-0.222L4.417,40.79C2.847,40.139,2.002,39.5,2,38.996z M5,49.996l0-4.141c0.799,0.503,1.811,0.962,3,1.376v4.788
	C6.055,51.29,5.002,50.559,5,49.996z M52,52.019v-4.787c1.189-0.414,2.201-0.873,3-1.376v4.138
	C54.999,50.557,53.945,51.289,52,52.019z M54.987,43.077c-0.109,0.677-1.645,1.575-4.376,2.419l0,0
	c-3.538,1.093-9.074,2.094-16.09,2.404c-0.359,0.015-0.717,0.03-1.083,0.042c-0.299,0.01-0.599,0.019-0.904,0.027
	C31.706,47.987,30.866,48,30,48c-0.866,0-1.707-0.013-2.536-0.032c-0.301-0.007-0.598-0.017-0.895-0.027
	c-0.369-0.012-0.729-0.027-1.09-0.042c-7.016-0.31-12.552-1.311-16.09-2.404l0,0c-2.645-0.817-4.173-1.685-4.365-2.355
	c0.298,0.104,0.607,0.205,0.924,0.304c0.032,0.01,0.064,0.02,0.096,0.029c0.27,0.083,0.546,0.163,0.829,0.241
	c0.107,0.03,0.215,0.06,0.324,0.089c0.16,0.043,0.324,0.084,0.488,0.126c3.642,0.933,8.291,1.594,13.31,1.891
	c0.002,0,0.003,0.001,0.005,0.001c0.001,0,0.002-0.001,0.003-0.001c1.55,0.092,3.133,0.149,4.733,0.168
	C26.162,45.996,26.585,46,27,46c0.551,0,1.115-0.007,1.686-0.017c1.459-0.024,2.899-0.078,4.307-0.162
	c0.003,0,0.005,0.002,0.008,0.002c0.005,0,0.008-0.003,0.013-0.003c1.715-0.103,3.375-0.25,4.97-0.433
	c0.006,0,0.011,0.003,0.017,0.003c0.022,0,0.04-0.011,0.062-0.013c1.776-0.205,3.46-0.457,5.023-0.75
	c0.322-0.059,0.639-0.12,0.953-0.183c0.07-0.014,0.14-0.028,0.21-0.043c2.953-0.606,5.509-1.391,7.263-2.364
	c0.096-0.052,0.186-0.106,0.277-0.159c0.111-0.066,0.217-0.133,0.32-0.201c0.096-0.062,0.207-0.122,0.295-0.185
	C54.378,42.196,54.922,42.826,54.987,43.077z M55,30.019v-4.787c1.189-0.414,2.201-0.873,3-1.376v4.138
	C57.999,28.557,56.945,29.289,55,30.019z"/>
<g>
</g>
<g>
</g>
<g>
</g>
<g>
</g>
<g>
</g>
<g>
</g>
<g>
</g>
<g>
</g>
<g>
</g>
<g>
</g>
<g>
</g>
<g>
</g>
<g>
</g>
<g>
</g>
<g>
</g>
</svg>
